build/img/0-common/geo-footer.svg

<svg width="30" height="30" viewBox="0 0 30 30" fill="none" xmlns="http://www.w3.org/2000/svg">
<rect width="30" height="30" rx="3" fill="white"/>
<path d="M14.8572 7.10254C11.8333 7.10254 9.37305 9.56276 9.37305 12.5867C9.37305 16.3875 14.8626 22.88 14.8626 22.88C14.8626 22.88 20.3414 16.2006 20.3414 12.5867C20.3414 9.56276 17.8812 7.10254 14.8572 7.10254ZM16.5119 14.1925C16.0556 14.6486 15.4565 14.8768 14.8572 14.8768C14.258 14.8768 13.6587 14.6486 13.2026 14.1925C12.2902 13.2801 12.2902 11.7956 13.2026 10.8832C13.6444 10.4412 14.2321 10.1977 14.8572 10.1977C15.4823 10.1977 16.0699 10.4413 16.5119 10.8832C17.4243 11.7956 17.4243 13.2801 16.5119 14.1925Z" fill="#2B313F"/>
</svg>

<svg width="30" height="30" fill="none" xmlns="http://www.w3.org/2000/svg"><rect width="30" height="30" rx="3" fill="#fff"/><path d="M14.857 7.103a5.49 5.49 0 00-5.484 5.484c0 3.8 5.49 10.293 5.49 10.293s5.478-6.68 5.478-10.293a5.49 5.49 0 00-5.484-5.484zm1.655 7.09a2.333 2.333 0 01-1.655.684c-.599 0-1.198-.228-1.654-.684a2.343 2.343 0 011.654-3.995c.625 0 1.213.243 1.655.685a2.343 2.343 0 010 3.31z" fill="#2B313F"/></svg>
